; generated by Slic3r 1.2.9 on 2017-01-22 at 15:54:59

; external perimeters extrusion width = 0.40mm
; perimeters extrusion width = 0.48mm
; infill extrusion width = 0.48mm
; solid infill extrusion width = 0.48mm
; top infill extrusion width = 0.48mm

M107
M104 S210 ; set temperature
G28 ; home all axes
;G1 Z5 F5000 ; lift nozzle

M109 S210 ; wait for temperature to be reached
G21 ; set units to millimeters
G90 ; use absolute coordinates
M82 ; use absolute distances for extrusion
G92 E0
G1 Z0.300 F6000.000
G1 E-4.00000 F1200.00000
G92 E0
G1 X86.582 Y64.475 F6000.000
G1 E4.00000 F1200.00000
G1 X87.147 Y63.791 E4.05929 F3000.000
G1 X88.006 Y62.877 E4.14313
G1 X88.654 Y62.269 E4.20245
G1 X89.620 Y61.469 E4.28626
G1 X90.339 Y60.947 E4.34559
G1 X91.398 Y60.275 E4.42941
G1 X92.176 Y59.847 E4.48873
G1 X93.176 Y59.376 E4.56259
G1 X94.137 Y58.986 E4.63187
G1 X95.331 Y58.598 E4.71569
G1 X96.191 Y58.377 E4.77500
G1 X97.423 Y58.142 E4.85883
G1 X98.304 Y58.031 E4.91812
G1 X99.556 Y57.952 E5.00196
G1 X100.444 Y57.952 E5.06129
G1 X101.696 Y58.031 E5.14510 F3000.000
G1 X102.577 Y58.142 E5.20441
G1 X103.809 Y58.377 E5.28822
G1 X104.669 Y58.598 E5.34753
G1 X105.721 Y58.940 E5.42138
G1 X106.689 Y59.313 E5.49067
G1 X107.824 Y59.847 E5.57449
G1 X108.602 Y60.275 E5.63382
G1 X109.661 Y60.947 E5.71763
G1 X110.380 Y61.469 E5.77696
G1 X111.346 Y62.269 E5.86078
G1 X111.994 Y62.877 E5.92011
G1 X112.853 Y63.791 E6.00393
G1 X113.418 Y64.475 E6.06321
G1 X114.156 Y65.491 E6.14706
G1 X114.632 Y66.240 E6.20638
G1 X115.236 Y67.340 E6.29020
G1 X115.614 Y68.143 E6.34951
G1 X116.076 Y69.310 E6.43332
G1 X116.351 Y70.154 E6.49266
G1 X116.663 Y71.370 E6.57649
G1 X116.829 Y72.242 E6.63579
G1 X116.986 Y73.486 E6.71961
G1 X117.042 Y74.373 E6.77894
G1 X117.042 Y75.627 E6.86275
G1 X116.987 Y76.510 E6.92184
G1 X109.516 Y135.883 E10.91954
G1 X108.830 Y138.151 E11.07787
G1 X107.433 Y140.066 E11.23620
G1 X105.482 Y141.412 E11.39453
G1 X102.500 Y142.071 E11.59857
G1 X97.500 Y142.071 E11.93260
G1 X95.163 Y141.674 E12.09093
G1 X93.089 Y140.527 E12.24926
G1 X91.511 Y138.759 E12.40759
G1 X90.484 Y135.883 E12.61164
G1 X83.013 Y76.510 E16.60933
G1 X82.958 Y75.627 E16.66842
G1 X82.958 Y74.373 E16.75224
G1 X83.014 Y73.486 E16.81157
G1 X83.171 Y72.242 E16.89538
G1 X83.337 Y71.369 E16.95470
G1 X83.649 Y70.154 E17.03852
G1 X83.924 Y69.310 E17.09785
G1 X84.386 Y68.143 E17.18167
G1 X84.764 Y67.340 E17.24098
G1 X85.368 Y66.240 E17.32480
G1 X85.844 Y65.490 E17.38414
G1 X86.546 Y64.524 E17.46394
G1 X87.015 Y64.790 F6000.000
G1 X87.538 Y64.158 E17.51875 F3000.000
G1 X88.397 Y63.243 E17.60258
G1 X88.995 Y62.681 E17.65741
G1 X89.962 Y61.882 E17.74122
G1 X90.626 Y61.399 E17.79606
G1 X91.685 Y60.727 E17.87987
G1 X92.404 Y60.332 E17.93470
G1 X93.405 Y59.861 E18.00856
G1 X94.303 Y59.495 E18.07335
G1 X95.496 Y59.108 E18.15716
G1 X96.291 Y58.903 E18.21198
G1 X97.523 Y58.668 E18.29581
G1 X98.337 Y58.566 E18.35061
G1 X99.590 Y58.487 E18.43445
G1 X100.411 Y58.487 E18.48928
G1 X101.663 Y58.566 E18.57310 F3000.000
G1 X102.477 Y58.668 E18.62791
G1 X103.709 Y58.903 E18.71172
G1 X104.504 Y59.107 E18.76654
G1 X105.555 Y59.449 E18.84039
G1 X106.460 Y59.797 E18.90519
G1 X107.596 Y60.332 E18.98900
G1 X108.315 Y60.727 E19.04384
G1 X109.374 Y61.399 E19.12766
G1 X110.038 Y61.882 E19.18249
G1 X111.005 Y62.681 E19.26631
G1 X111.603 Y63.243 E19.32115
G1 X112.462 Y64.158 E19.40497
G1 X112.985 Y64.790 E19.45975
G1 X113.723 Y65.805 E19.54360
G1 X114.163 Y66.498 E19.59843
G1 X114.767 Y67.598 E19.68225
G1 X115.116 Y68.340 E19.73706
G1 X115.578 Y69.507 E19.82088
G1 X115.832 Y70.287 E19.87572
G1 X116.144 Y71.503 E19.95955
G1 X116.298 Y72.309 E20.01436
G1 X116.455 Y73.553 E20.09817
G1 X116.506 Y74.373 E20.15301
G1 X116.506 Y75.627 E20.23683
G1 X116.455 Y76.443 E20.29144
G1 X108.984 Y135.816 E24.28914
G1 X108.311 Y137.992 E24.44131
G1 X106.931 Y139.804 E24.59348
G1 X105.013 Y141.033 E24.74565
G1 X102.500 Y141.536 E24.91686
G1 X97.500 Y141.536 E25.25089
G1 X95.257 Y141.139 E25.40306
G1 X93.286 Y139.996 E25.55523
G1 X91.828 Y138.247 E25.70740
G1 X91.015 Y135.816 E25.87861
G1 X83.545 Y76.443 E29.87630
G1 X83.494 Y75.627 E29.93092
G1 X83.494 Y74.373 E30.01473
G1 X83.545 Y73.554 E30.06957
G1 X83.702 Y72.309 E30.15338
G1 X83.856 Y71.503 E30.20821
G1 X84.168 Y70.287 E30.29203
G1 X84.422 Y69.507 E30.34686
G1 X84.884 Y68.340 E30.43068
G1 X85.233 Y67.598 E30.48550
G1 X85.837 Y66.498 E30.56932
G1 X86.277 Y65.805 E30.62416
G1 X86.980 Y64.839 E30.70397
G1 E26.70397 F1200.00000
G92 E0
G1 X107.845 Y79.978 F6000.000
G1 E4.00000 F1200.00000
G1 X107.159 Y80.922 E4.07795 F1500.000
G1 X106.360 Y81.773 E4.15590
G1 X105.461 Y82.517 E4.23385
G1 X104.476 Y83.142 E4.31180
G1 X103.420 Y83.639 E4.38975
G1 X102.311 Y83.999 E4.46769
G1 X101.164 Y84.218 E4.54564
G1 X100.000 Y84.291 E4.62359
G1 X98.835 Y84.218 E4.70154
G1 X97.689 Y83.999 E4.77948
G1 X96.580 Y83.639 E4.85743
G1 X95.524 Y83.142 E4.93538
G1 X94.539 Y82.517 E5.01333
G1 X93.640 Y81.773 E5.09128
G1 X92.841 Y80.922 E5.16923
G1 X92.155 Y79.978 E5.24718
G1 X91.593 Y78.956 E5.32512
G1 X91.164 Y77.871 E5.40307
G1 X90.873 Y76.741 E5.48102
G1 X90.727 Y75.583 E5.55897
G1 X90.727 Y74.417 E5.63691
G1 X90.873 Y73.259 E5.71486
G1 X91.164 Y72.129 E5.79281
G1 X91.593 Y71.044 E5.87076
G1 X92.155 Y70.022 E5.94870
G1 X92.841 Y69.078 E6.02665
G1 X93.640 Y68.227 E6.10460
G1 X94.539 Y67.483 E6.18255
G1 X95.524 Y66.858 E6.26050
G1 X96.580 Y66.361 E6.33845
G1 X97.689 Y66.001 E6.41639
G1 X98.835 Y65.782 E6.49434
G1 X99.832 Y65.719 E6.56107
G1 X100.000 Y65.709 E6.57229 F1500.000
G1 X101.164 Y65.782 E6.65024
G1 X102.311 Y66.001 E6.72819
G1 X103.420 Y66.361 E6.80613
G1 X104.476 Y66.858 E6.88408
G1 X105.461 Y67.483 E6.96203
G1 X106.360 Y68.227 E7.03998
G1 X107.159 Y69.078 E7.11793
G1 X107.845 Y70.022 E7.19588
G1 X108.407 Y71.044 E7.27382
G1 X108.836 Y72.129 E7.35177
G1 X109.127 Y73.259 E7.42972
G1 X109.273 Y74.417 E7.50767
G1 X109.273 Y75.583 E7.58561
G1 X109.127 Y76.741 E7.66356
G1 X108.836 Y77.871 E7.74151
G1 X108.407 Y78.956 E7.81946
G1 X107.874 Y79.926 E7.89339
G1 X108.023 Y80.337 F6000.000
G1 E3.89339 F1200.00000
G92 E0
G1 X101.129 Y85.293 F6000.000
G1 E4.00000 F1200.00000
G1 X101.129 Y133.629 E7.22906 F3000.000
G1 X98.871 Y133.629 E7.37987
G1 X98.871 Y85.293 E10.60893
G1 X100.000 Y85.365 E10.68449
G1 X101.069 Y85.297 E10.75604
G1 X101.664 Y84.668 F6000.000
G1 X101.664 Y134.164 E14.06268 F3000.000
G1 X98.336 Y134.164 E14.28506
G1 X98.336 Y84.668 E17.59170
G1 X98.768 Y84.750 E17.62112
G1 X100.000 Y84.828 E17.70357
G1 X101.232 Y84.750 E17.78602
G1 X101.605 Y84.679 E17.81144
G1 X102.200 Y84.454 F6000.000
G1 X102.200 Y134.700 E21.16817 F1500.000
G1 X97.800 Y134.700 E21.46211
G1 X97.800 Y84.454 E24.81883
G1 X96.433 Y84.010 E24.91486
G1 X95.332 Y83.491 E24.99616
G1 X94.304 Y82.839 E25.07745
G1 X93.367 Y82.064 E25.15874
G1 X92.534 Y81.177 E25.24004
G1 X91.818 Y80.192 E25.32133
G1 X91.232 Y79.126 E25.40263
G1 X90.784 Y77.994 E25.48392
G1 X90.482 Y76.816 E25.56522
G1 X90.329 Y75.608 E25.64651
G1 X90.329 Y74.392 E25.72780
G1 X90.482 Y73.184 E25.80910
G1 X90.752 Y72.132 E25.88169
G1 X90.784 Y72.006 E25.89039
G1 X91.232 Y70.874 E25.97169
G1 X91.818 Y69.808 E26.05298
G1 X92.534 Y68.823 E26.13427
G1 X93.367 Y67.936 E26.21557
G1 X94.304 Y67.161 E26.29686
G1 X95.332 Y66.509 E26.37816
G1 X96.433 Y65.990 E26.45945
G1 X97.590 Y65.614 E26.54074
G1 X98.786 Y65.386 E26.62204
G1 X100.000 Y65.310 E26.70333
G1 X101.214 Y65.386 E26.78463
G1 X102.410 Y65.614 E26.86592
G1 X103.567 Y65.990 E26.94721
G1 X104.668 Y66.509 E27.02851
G1 X105.696 Y67.161 E27.10980
G1 X106.633 Y67.936 E27.19109
G1 X107.466 Y68.823 E27.27239
G1 X108.182 Y69.808 E27.35368
G1 X108.768 Y70.874 E27.43498
G1 X109.216 Y72.006 E27.51627
G1 X109.518 Y73.184 E27.59757
G1 X109.671 Y74.392 E27.67886
G1 X109.671 Y75.608 E27.76015
G1 X109.518 Y76.816 E27.84145
G1 X109.216 Y77.994 E27.92274
G1 X108.768 Y79.126 E28.00404
G1 X108.182 Y80.192 E28.08533
G1 X107.466 Y81.177 E28.16662
G1 X106.633 Y82.064 E28.24792
G1 X105.696 Y82.839 E28.32921
G1 X104.668 Y83.491 E28.41051
G1 X103.567 Y84.010 E28.49180
G1 X102.257 Y84.435 E28.58382
G1 X101.802 Y84.495 F6000.000
G1 X100.995 Y85.712 F6000.000
G1 X100.728 Y85.446 E28.60910 F1500.000
G1 X100.012 Y85.491 E28.65732
G1 X100.995 Y86.474 E28.75066
G1 X100.995 Y87.235 E28.80182
G1 X99.216 Y85.457 E28.97076
G1 X99.005 Y86.008 E29.01038
G1 X100.995 Y87.997 E29.19933
G1 X100.995 Y88.759 E29.25049
G1 X99.005 Y86.769 E29.43944
G1 X99.005 Y87.531 E29.49060
G1 X100.995 Y89.520 E29.67956
G1 X100.995 Y90.282 E29.73071
G1 X99.005 Y88.293 E29.91967
G1 X99.005 Y89.054 E29.97083
G1 X100.995 Y91.043 E30.15978
G1 X100.995 Y91.805 E30.21094
G1 X99.005 Y89.816 E30.39989
G1 X99.005 Y90.578 E30.45105
G1 X100.995 Y92.567 E30.64001
G1 X100.995 Y93.328 E30.69116
G1 X99.005 Y91.339 E30.88012
G1 X99.005 Y92.101 E30.93128
G1 X100.995 Y94.090 E31.12023
G1 X100.995 Y94.852 E31.17139
G1 X99.005 Y92.862 E31.36034
G1 X99.005 Y93.624 E31.41150
G1 X100.995 Y95.613 E31.60046
G1 X100.995 Y96.375 E31.65161
G1 X99.005 Y94.386 E31.84057
G1 X99.005 Y95.147 E31.89173
G1 X100.995 Y97.136 E32.08068
G1 X100.995 Y97.898 E32.13184
G1 X99.005 Y95.909 E32.32079
G1 X99.005 Y96.670 E32.37195
G1 X100.995 Y98.660 E32.56091
G1 X100.995 Y99.421 E32.61206
G1 X99.005 Y97.432 E32.80102
G1 X99.005 Y98.194 E32.85218
G1 X100.995 Y100.183 E33.04113
G1 X100.995 Y100.944 E33.09229
G1 X99.005 Y98.955 E33.28124
G1 X99.005 Y99.717 E33.33240
G1 X100.995 Y101.706 E33.52136
G1 X100.995 Y102.468 E33.57251
G1 X99.005 Y100.478 E33.76147
G1 X99.005 Y101.240 E33.81263
G1 X100.995 Y103.229 E34.00158
G1 X100.995 Y103.991 E34.05274
G1 X99.005 Y102.002 E34.24169
G1 X99.005 Y102.763 E34.29285
G1 X100.995 Y104.752 E34.48181
G1 X100.995 Y105.514 E34.53296
G1 X99.005 Y103.525 E34.72192
G1 X99.005 Y104.286 E34.77308
G1 X100.995 Y106.276 E34.96203
G1 X100.995 Y107.037 E35.01319
G1 X99.005 Y105.048 E35.20214
G1 X99.005 Y105.810 E35.25330
G1 X100.995 Y107.799 E35.44226
G1 X100.995 Y108.560 E35.49341
G1 X99.005 Y106.571 E35.68237
G1 X99.005 Y107.333 E35.73353
G1 X100.995 Y109.322 E35.92248
G1 X100.995 Y110.084 E35.97364
G1 X99.005 Y108.094 E36.16259
G1 X99.005 Y108.856 E36.21375
G1 X100.995 Y110.845 E36.40271
G1 X100.995 Y111.607 E36.45386
G1 X99.005 Y109.618 E36.64282
G1 X99.005 Y110.379 E36.69398
G1 X100.995 Y112.368 E36.88293
G1 X100.995 Y113.130 E36.93409
G1 X99.005 Y111.141 E37.12304
G1 X99.005 Y111.902 E37.17420
G1 X100.995 Y113.892 E37.36316
G1 X100.995 Y114.653 E37.41431
G1 X99.005 Y112.664 E37.60327
G1 X99.005 Y113.426 E37.65443
G1 X100.995 Y115.415 E37.84338
G1 X100.995 Y116.176 E37.89454
G1 X99.005 Y114.187 E38.08349
G1 X99.005 Y114.949 E38.13465
G1 X100.995 Y116.938 E38.32361
G1 X100.995 Y117.700 E38.37476
G1 X99.005 Y115.710 E38.56372
G1 X99.005 Y116.472 E38.61488
G1 X100.995 Y118.461 E38.80383
G1 X100.995 Y119.223 E38.85499
G1 X99.005 Y117.234 E39.04395
G1 X99.005 Y117.995 E39.09510
G1 X100.995 Y119.984 E39.28406
G1 X100.995 Y120.746 E39.33521
G1 X99.005 Y118.757 E39.52417
G1 X99.005 Y119.519 E39.57533
G1 X100.995 Y121.508 E39.76428
G1 X100.995 Y122.269 E39.81544
G1 X99.005 Y120.280 E40.00440
G1 X99.005 Y121.042 E40.05555
G1 X100.995 Y123.031 E40.24451
G1 X100.995 Y123.793 E40.29566
G1 X99.005 Y121.803 E40.48462
G1 X99.005 Y122.565 E40.53578
G1 X100.995 Y124.554 E40.72473
G1 X100.995 Y125.316 E40.77589
G1 X99.005 Y123.327 E40.96485
G1 X99.005 Y124.088 E41.01600
G1 X100.995 Y126.077 E41.20496
G1 X100.995 Y126.839 E41.25611
G1 X99.005 Y124.850 E41.44507
G1 X99.005 Y125.611 E41.49623
G1 X100.995 Y127.601 E41.68518
G1 X100.995 Y128.362 E41.73634
G1 X99.005 Y126.373 E41.92530
G1 X99.005 Y127.135 E41.97645
G1 X100.995 Y129.124 E42.16541
G1 X100.995 Y129.885 E42.21657
G1 X99.005 Y127.896 E42.40552
G1 X99.005 Y128.658 E42.45668
G1 X100.995 Y130.647 E42.64563
G1 X100.995 Y131.409 E42.69679
G1 X99.005 Y129.419 E42.88575
G1 X99.005 Y130.181 E42.93690
G1 X100.995 Y132.170 E43.12586
G1 X100.995 Y132.932 E43.17702
G1 X99.005 Y130.943 E43.36597
G1 X99.005 Y131.704 E43.41713
G1 X100.796 Y133.495 E43.58720
G1 X100.034 Y133.495 E43.63836
G1 X99.005 Y132.466 E43.73609
G1 X99.005 Y133.227 E43.78724
G1 X99.273 Y133.495 E43.81262
G1 Z0.600 F6000.000
G1 X102.098 Y83.919 F6000.000
G1 X101.150 Y84.100 E43.85304 F3000.000
G1 X100.000 Y84.172 E43.90126
G1 X98.850 Y84.100 E43.94947
G1 X97.719 Y83.884 E43.99769
G1 X96.624 Y83.528 E44.04590
G1 X95.581 Y83.038 E44.09412
G1 X94.609 Y82.420 E44.14234
G1 X93.721 Y81.686 E44.19055
G1 X92.933 Y80.847 E44.23877
G1 X92.256 Y79.915 E44.28699
G1 X91.701 Y78.905 E44.33520
G1 X91.277 Y77.834 E44.38342
G1 X90.990 Y76.719 E44.43164
G1 X90.846 Y75.576 E44.47985
G1 X90.846 Y74.424 E44.52807
G1 X90.990 Y73.281 E44.57628
G1 X91.277 Y72.166 E44.62450
G1 X91.701 Y71.095 E44.67272
G1 X92.256 Y70.085 E44.72093
G1 X92.933 Y69.153 E44.76915
G1 X93.721 Y68.314 E44.81737
G1 X94.254 Y67.873 E44.84633
G1 X94.609 Y67.580 E44.86558
G1 X95.581 Y66.962 E44.91380
G1 X96.624 Y66.472 E44.96202
G1 X97.719 Y66.116 E45.01023
G1 X98.850 Y65.900 E45.05845
G1 X99.541 Y65.857 E45.08741
G1 X100.000 Y65.828 E45.10667 F3000.000
G1 X101.150 Y65.900 E45.15488
G1 X102.281 Y66.116 E45.20310
G1 X103.376 Y66.472 E45.25131
G1 X104.419 Y66.962 E45.29953
G1 X105.391 Y67.580 E45.34775
G1 X106.279 Y68.314 E45.39596
G1 X107.067 Y69.153 E45.44418
G1 X107.744 Y70.085 E45.49240
G1 X108.299 Y71.095 E45.54061
G1 X108.723 Y72.166 E45.58883
G1 X109.010 Y73.281 E45.63705
G1 X109.154 Y74.424 E45.68526
G1 X109.154 Y75.576 E45.73348
G1 X109.010 Y76.719 E45.78169
G1 X108.723 Y77.834 E45.82991
G1 X108.299 Y78.905 E45.87813
G1 X107.744 Y79.915 E45.92634
G1 X107.067 Y80.847 E45.97456
G1 X106.279 Y81.686 E46.02278
G1 X105.391 Y82.420 E46.07099
G1 X104.419 Y83.038 E46.11921
G1 X103.376 Y83.528 E46.16742
G1 X102.281 Y83.884 E46.21564
G1 X102.157 Y83.908 E46.22093
G1 X101.966 Y84.297 F6000.000
G1 X101.504 Y84.843 F6000.000
G1 X101.504 Y134.004 E48.78935 F6000.000
G1 X98.496 Y134.004 E48.94649
G1 X98.496 Y84.843 E51.51492
G1 X98.750 Y84.891 E51.52844
G1 X100.000 Y84.970 E51.59386
G1 X101.250 Y84.891 E51.65927
G1 X101.445 Y84.854 E51.66966
G1 X101.923 Y84.336 F6000.000
G1 X101.923 Y134.423 E54.28642 F6000.000
G1 X98.077 Y134.423 E54.48733
G1 X98.077 Y84.336 E57.10409
G1 X98.803 Y84.475 E57.14270
G1 X100.000 Y84.550 E57.20535
G1 X101.197 Y84.475 E57.26801
G1 X101.864 Y84.348 E57.30348
G1 X102.300 Y84.507 F6000.000
G1 X102.300 Y134.800 E59.40878 F3000.000
G1 X97.700 Y134.800 E59.60134
G1 X97.700 Y84.507 E61.70664
G1 X96.403 Y84.085 E61.76373
G1 X95.293 Y83.563 E61.81509
G1 X94.257 Y82.905 E61.86646
G1 X93.311 Y82.123 E61.91782
G1 X92.471 Y81.228 E61.96919
G1 X91.750 Y80.236 E62.02056
G1 X91.159 Y79.160 E62.07192
G1 X90.707 Y78.020 E62.12329
G1 X90.402 Y76.831 E62.17466
G1 X90.248 Y75.614 E62.22602
G1 X90.248 Y74.386 E62.27739
G1 X90.402 Y73.169 E62.32875
G1 X90.707 Y71.980 E62.38012
G1 X91.159 Y70.840 E62.43149
G1 X91.750 Y69.764 E62.48285
G1 X92.471 Y68.772 E62.53422
G1 X93.311 Y67.877 E62.58559
G1 X94.257 Y67.095 E62.63695
G1 X95.293 Y66.437 E62.68832
G1 X96.403 Y65.915 E62.73969
G1 X97.570 Y65.536 E62.79105
G1 X98.775 Y65.306 E62.84242
G1 X100.000 Y65.229 E62.89378
G1 X101.225 Y65.306 E62.94515
G1 X102.430 Y65.536 E62.99652
G1 X103.597 Y65.915 E63.04788
G1 X104.707 Y66.437 E63.09925
G1 X105.743 Y67.095 E63.15062
G1 X106.689 Y67.877 E63.20198
G1 X107.529 Y68.772 E63.25335
G1 X108.250 Y69.764 E63.30472
G1 X108.841 Y70.840 E63.35608
G1 X109.293 Y71.980 E63.40745
G1 X109.598 Y73.169 E63.45882
G1 X109.752 Y74.386 E63.51018
G1 X109.752 Y75.614 E63.56155
G1 X109.598 Y76.831 E63.61291
G1 X109.293 Y78.020 E63.66428
G1 X108.841 Y79.160 E63.71565
G1 X108.250 Y80.236 E63.76701
G1 X107.529 Y81.228 E63.81838
G1 X106.689 Y82.123 E63.86975
G1 X105.743 Y82.905 E63.92111
G1 X104.707 Y83.563 E63.97248
G1 X103.597 Y84.085 E64.02384
G1 X102.357 Y84.488 E64.07842
G1 X101.902 Y84.548 F6000.000
G1 X102.111 Y84.237 F6000.000
G1 X102.362 Y84.172 E64.09195 F1200.000
G1 X103.487 Y83.806 E64.15373
G1 X104.569 Y83.296 E64.21623
G1 X105.567 Y82.663 E64.27801
G1 X106.478 Y81.909 E64.33980
G1 X107.302 Y81.032 E64.40266
G1 X107.997 Y80.075 E64.46444
